X:1
T:All I Need
T:All I Need
T:Charles Price Jones
T:Charles Price Jones, 1906
T:Public Domain Courtesy of the Cyber Hymnal™
C:Charles Price Jones
Z:Public Domain
Z:Courtesy of the Cyber Hymnal™
%%score ( 1 2 ) ( 3 4 )
L:1/8
Q:1/4=115
M:4/4
K:Eb
V:1 treble 
V:2 treble 
V:3 bass 
V:4 bass 
V:1
 [B,E]2 [B,E]2 [B,E]2 B,2 | [B,E]2 [DF]2 [EG]4 | [EG]2 [DF]2 [DF]4 | [DF]2 [DG]2 [B,E]4 | %4
w: 1.~Je- sus Christ is|made to me,|All I need,|all I need,|
w: 2.~Je- sus is my|all in all,|All I need,|all I need,|
w: 3.~He re- deemed me|when He died,|All I need,|all I need,|
w: 4.~Glo- ry, glo- ry|to the Lamb,|All I need,|all I need,|
 [B,E]2 [B,E]2 [B,E]2 B,2 | [B,E]2 [B,F]2 [EG]4 | [B,E]2 [B,E]2 [EG]2 [DF]2 | [B,E]6 z2 || %8
w: He a- lone is|all my plea,|He is all I|need.|
w: While he keeps I|can- not fall,|He is all I|need.|
w: I with Him was|cru- ci- fied,|He is all I|need.|
w: By His Spir- it|sealed I am,|He is all I|need.|
"^Refrain" [EB]2 [EB]2 [Ec]2 [Ec]2 | [EB]2 [EB]2 [EG]4 | [FA]2 [FA]2 [DF]2 [DF]2 | [EG]2 A2 [EB]4 | %12
w: ||||
w: Wis- dom right- eous-|ness and pow’r,|Ho- li- ness for-|ev- er- more,|
w: ||||
w: ||||
 [EB]2 [EB]2 [Ec]2 [Ee]2 | [EB]2 [EB]2 [EG]4 | [B,E]2 [B,E]2 [EG]2 [DF]2 | [B,E]6 z2 |] %16
w: ||||
w: My re- dempt- ion|full and sure,|He is all I|need.|
w: ||||
w: ||||
V:2
 x6 B,2 | x8 | x8 | x8 | x6 B,2 | x8 | x8 | x8 || x8 | x8 | x8 | x2 (ED) x4 | x8 | x8 | x8 | x8 |] %16
V:3
 [E,G,]2 [E,G,]2 [E,G,]2 [E,G,]2 | [E,G,]2 [E,A,]2 [E,B,]4 | [E,B,]2 [B,,A,]2 [B,,A,]4 | %3
 [B,,A,]2 [B,,B,]2 [E,G,]4 | [E,G,]2 [E,G,]2 [E,G,]2 [E,G,]2 | [E,G,]2 [E,A,]2 [E,B,]4 | %6
 [E,G,]2 [E,G,]2 [B,,B,]2 [B,,A,]2 | [E,G,]6 z2 || [E,G,]2 [E,G,]2 [A,,A,]2 A,2 | %9
 [E,G,]2 [E,G,]2 [E,B,]4 | [B,,B,]2 [B,,B,]2 [B,,B,]2 [B,,B,]2 | [E,B,]2 [F,B,]2 [G,B,]4 | %12
 [G,B,]2 [E,G,]2 [A,,A,]2 [C,A,]2 | [E,G,]2 [E,G,]2 [E,B,]4 | [E,G,]2 [C,G,]2 [B,,B,]2 [B,,A,]2 | %15
 [E,G,]6 z2 |] %16
V:4
 x8 | x8 | x8 | x8 | x8 | x8 | x8 | x8 || x6 (A,,C,) | x8 | x8 | x8 | x8 | x8 | x8 | x8 |] %16

